Newaita-dark/actions/22/edit.svg

<svg height="22" viewBox="0 0 22 22" width="22" xmlns="http://www.w3.org/2000/svg"><path d="m15.222656 3.5625c-.355468-.355469-.929687-.355469-1.285156 0l-9.648438 9.648438.003907.003906c-.109375.109375-.191407.242187-.230469.390625l-1.289062 4.503906c-.089844.316406 0 .65625.230468.886719.234375.234375.574219.320312.890625.230468l4.5-1.285156c.148438-.042968.285157-.121094.394531-.230468v.003906l9.648438-9.648438c.355469-.355468.355469-.929687 0-1.285156zm.964844 3.539062c.175781.179688.175781.464844 0 .644532l-1.609375 1.605468-1.929687-1.929687 1.609374-1.605469c.179688-.179687.464844-.179687.644532 0zm-4.179688.964844 1.929688 1.929688-1.289062 1.285156-1.929688-1.929688zm-1.929687 1.929688 1.929687 1.929687-4.503906 4.5-.089844-.085937-.875-.878906-.964843-.964844zm0 0" fill="#e0e0e0"/></svg>

<svg xmlns="http://www.w3.org/2000/svg" xmlns:xlink="http://www.w3.org/1999/xlink" width="22px" height="22px" viewBox="0 0 22 22" version="1.1">
<g id="surface1">
     <defs>
  <style id="current-color-scheme" type="text/css">
   .ColorScheme-Text { color:#eeeeee; } .ColorScheme-Highlight { color:#424242; }
  </style>
 </defs>
<path style="fill:currentColor" class="ColorScheme-Text" d="M 15.222656 3.5625 C 14.867188 3.207031 14.292969 3.207031 13.9375 3.5625 L 4.289062 13.210938 L 4.292969 13.214844 C 4.183594 13.324219 4.101562 13.457031 4.0625 13.605469 L 2.773438 18.109375 C 2.683594 18.425781 2.773438 18.765625 3.003906 18.996094 C 3.238281 19.230469 3.578125 19.316406 3.894531 19.226562 L 8.394531 17.941406 C 8.542969 17.898438 8.679688 17.820312 8.789062 17.710938 L 8.789062 17.714844 L 18.4375 8.066406 C 18.792969 7.710938 18.792969 7.136719 18.4375 6.78125 Z M 16.1875 7.101562 C 16.363281 7.28125 16.363281 7.566406 16.1875 7.746094 L 14.578125 9.351562 L 12.648438 7.421875 L 14.257812 5.816406 C 14.4375 5.636719 14.722656 5.636719 14.902344 5.816406 Z M 12.007812 8.066406 L 13.9375 9.996094 L 12.648438 11.28125 L 10.71875 9.351562 Z M 10.078125 9.996094 L 12.007812 11.925781 L 7.503906 16.425781 L 7.414062 16.339844 L 6.539062 15.460938 L 5.574219 14.496094 Z M 10.078125 9.996094 "/>
</g>
</svg>
